svg/device/dashboard_fill.svg

<?xml version="1.0" encoding="UTF-8"?>
<svg width="24px" height="24px" viewBox="0 0 24 24" version="1.1" xmlns="http://www.w3.org/2000/svg" xmlns:xlink="http://www.w3.org/1999/xlink">
    <title>dashboard_fill</title>
    <g id="页面-1" stroke="none" stroke-width="1" fill="none" fill-rule="evenodd">
        <g id="Device" transform="translate(-192.000000, -240.000000)">
            <g id="dashboard_fill" transform="translate(192.000000, 240.000000)">
                 <path d="M24,0 L24,24 L0,24 L0,0 L24,0 Z M12.5934901,23.257841 L12.5819402,23.2595131 L12.5108777,23.2950439 L12.4918791,23.2987469 L12.4918791,23.2987469 L12.4767152,23.2950439 L12.4056548,23.2595131 C12.3958229,23.2563662 12.3870493,23.2590235 12.3821421,23.2649074 L12.3780323,23.275831 L12.360941,23.7031097 L12.3658947,23.7234994 L12.3769048,23.7357139 L12.4804777,23.8096931 L12.4953491,23.8136134 L12.4953491,23.8136134 L12.5071152,23.8096931 L12.6106902,23.7357139 L12.6232938,23.7196733 L12.6232938,23.7196733 L12.6266527,23.7031097 L12.609561,23.275831 C12.6075724,23.2657013 12.6010112,23.2592993 12.5934901,23.257841 L12.5934901,23.257841 Z M12.8583906,23.1452862 L12.8445485,23.1473072 L12.6598443,23.2396597 L12.6498822,23.2499052 L12.6498822,23.2499052 L12.6471943,23.2611114 L12.6650943,23.6906389 L12.6699349,23.7034178 L12.6699349,23.7034178 L12.678386,23.7104931 L12.8793402,23.8032389 C12.8914285,23.8068999 12.9022333,23.8029875 12.9078286,23.7952264 L12.9118235,23.7811639 L12.8776777,23.1665331 C12.8752882,23.1545897 12.8674102,23.1470016 12.8583906,23.1452862 L12.8583906,23.1452862 Z M12.1430473,23.1473072 C12.1332178,23.1423925 12.1221763,23.1452606 12.1156365,23.1525954 L12.1099173,23.1665331 L12.0757714,23.7811639 C12.0751323,23.7926639 12.0828099,23.8018602 12.0926481,23.8045676 L12.108256,23.8032389 L12.3092106,23.7104931 L12.3186497,23.7024347 L12.3186497,23.7024347 L12.3225043,23.6906389 L12.340401,23.2611114 L12.337245,23.2485176 L12.337245,23.2485176 L12.3277531,23.2396597 L12.1430473,23.1473072 Z" id="MingCute" fill-rule="nonzero"></path>
                <path d="M12.9999,2.04938 C17.7244,2.51845 21.4815,6.27559 21.9506,11 L19.9999,11 C19.4477,11 18.9999,11.4477 18.9999,12 C18.9999,12.5523 19.4477,13 19.9999,13 L21.9506,13 C21.4488,18.0533 17.1853,22 11.9999,22 C6.81459,22 2.55104,18.0533 2.04932,13 L3.99994,13 C4.55223,13 4.99994,12.5523 4.99994,12 C4.99994,11.4477 4.55223,11 3.99994,11 L2.04932,11 C2.51839,6.27559 6.27552,2.51845 10.9999,2.04938 L10.9999,4 C10.9999,4.55229 11.4477,5 11.9999,5 C12.5522,5 12.9999,4.55229 12.9999,4 L12.9999,2.04938 Z M17.78,6.22 L12.9372498,8.68549993 L12.5639368,8.88160297 L11.9538121,9.19234339 C11.2331508,9.5614361 10.500066,9.964354 9.94932,10.5151 C8.97764,11.4868 8.86,13.1027 9.87861,14.1213 C10.8972,15.1399 12.5132,15.0223 13.4849,14.0506 C13.95692,13.57858 14.320364,12.972532 14.6470088,12.3551656 L15.1183487,11.4359659 L15.4802061,10.7381492 L17.78,6.22 Z M13.1623,10.8376 L13.0496625,11.0476 L12.9368,11.2642 C12.7283,11.6663667 12.5106333,12.0860333 12.2392398,12.4363366 L12.0706,12.6364 C11.7926,12.9144 11.4458,12.8601 11.2928,12.7071 C11.15519,12.56949 11.097365,12.27474 11.2898381,12.0145041 L11.3625,11.9304 C11.6815833,11.63565 12.0874028,11.4036778 12.493037,11.1896917 L12.7357,11.0631 C12.8816,10.9875 13.0252,10.913 13.1623,10.8376 Z" id="形状" fill="#09244B"></path>
            </g>
        </g>
    </g>
</svg>

<svg xmlns="http://www.w3.org/2000/svg" width="24" height="24"><g fill="none" fill-rule="evenodd"><path d="M24 0v24H0V0h24ZM12.593 23.258l-.011.002-.071.035-.02.004-.014-.004-.071-.035c-.01-.004-.019-.001-.024.005l-.004.01-.017.428.005.02.01.013.104.074.015.004.012-.004.104-.074.012-.016.004-.017-.017-.427c-.002-.01-.009-.017-.017-.018Zm.265-.113-.013.002-.185.093-.01.01-.003.011.018.43.005.012.008.007.201.093c.012.004.023 0 .029-.008l.004-.014-.034-.614c-.003-.012-.01-.02-.02-.022Zm-.715.002a.023.023 0 0 0-.027.006l-.006.014-.034.614c0 .012.007.02.017.024l.015-.002.201-.093.01-.008.004-.011.017-.43-.003-.012-.01-.01-.184-.092Z"/><path fill="#09244B" d="M13 2.05A10.003 10.003 0 0 1 21.95 11H20a1 1 0 0 0 0 2h1.95c-.501 5.053-4.765 9-9.95 9s-9.449-3.947-9.95-9H4a1 1 0 1 0 0-2H2.05A10.003 10.003 0 0 1 11 2.05V4a1 1 0 0 0 2 0V2.05Zm4.78 4.17-4.843 2.465-.373.197-.61.31c-.72.37-1.454.772-2.005 1.323-.971.972-1.089 2.588-.07 3.606 1.018 1.019 2.634.901 3.606-.07.472-.472.835-1.078 1.162-1.696l.471-.919.362-.698 2.3-4.518Zm-4.618 4.618-.112.21-.113.216c-.209.402-.426.822-.698 1.172l-.168.2c-.278.278-.625.224-.778.071-.138-.138-.196-.432-.003-.692l.073-.085c.319-.294.724-.526 1.13-.74l.243-.127c.146-.075.29-.15.426-.225Z"/></g></svg>
